X:7840
T:Everybody loves Saturday night
C:anon.
O:Sierra Leone
R:Swing
Z:Transcribed by Frank Nordberg - http://www.musicaviva.com
F:http://abc.musicaviva.com/tunes/sierra/everybody-loves.abc
M:C
L:1/4
Q:1/4=220
K:F
"F"FF FF|"C7"G2 G/F/G|"F"A2 z2|"F"z4|
w:Eve-ry-bo-dy loves Sat-ur-day night,
"F"FF FF|"C7"G2 G/F/G|"F"F2 z2|"F"z4|
w:eve-ry-bo-dy loves Sat-ur-day night.
"F"zc/c/ c/c/z|"C7"zB/B/ B/B/z|"F"zA/A/ A/A/z|"C"zG/G/ G/G/z|
w:Eve-ry-bo-dy, eve-ry-bo-dy, eve-ry-bo-dy, eve-ry-bo-dy
"F"FF FF|"C7"G2 G/F/G|"F"F2 z2|"F"z4|]
w:eve-ry-bo-dy loves Sat-ur-day night.
W:
W:Everybody loves Saturday night,
W:everybody loves Saturday night.
W:Everybody, everybody, everybody, everybody
W:everybody loves Saturday night.
W:
W:
W:  From Musica Viva - http://www.musicaviva.com
W:  the Internet center for free sheet music downloads.

